icon-themes/breeze_svg/cmd/sc_paraspaceincrease.svg

<svg viewBox="0 0 16 16" xmlns="http://www.w3.org/2000/svg"><path d="m2 3v1h2v-1zm4 0v1h3v-1zm-4 2v1h6v-1zm0 5v1h6v-1zm0 2v1h2v-1zm4 0v1h2v-1z" fill="#4d4d4d"/><path d="m12 3-2 3h4zm-2 7 2 3 2-3z" fill="#1d99f3"/></svg>

<svg xmlns="http://www.w3.org/2000/svg" viewBox="0 0 16 16">
 <path 
     style="fill:#4d4d4d" 
     d="M 2 3 L 2 4 L 4 4 L 4 3 L 2 3 z M 6 3 L 6 4 L 9 4 L 9 3 L 6 3 z M 2 5 L 2 6 L 8 6 L 8 5 L 2 5 z M 2 10 L 2 11 L 8 11 L 8 10 L 2 10 z M 2 12 L 2 13 L 4 13 L 4 12 L 2 12 z M 6 12 L 6 13 L 8 13 L 8 12 L 6 12 z "
     />
 <path 
     style="fill:#1d99f3" 
     d="M 12 3 L 10 6 L 14 6 L 12 3 z M 10 10 L 12 13 L 14 10 L 10 10 z "
     />
 </svg>
